Simply white circles/scalable/actions/edit-select-all.svg

<svg xmlns="http://www.w3.org/2000/svg" width="24" height="24">
  <path fill="#e6e6e6" d="M3 5.0000001h2.0000001V3C3.895 3 3 3.895 3 5.0000001m0 8.0000009h2.0000001v-2.000002H3v2.000002M7 21h1.9999998v-2.000002H7V21M3 8.9999998h2.0000001V7H3v1.9999998M13.000001 3h-2.000002v2.0000001h2.000002V3m5.999997 0v2.0000001H21C21 3.895 20.105 3 18.999998 3M5.0000001 21v-2.000002H3C3 20.105 3.895 21 5.0000001 21M3 16.999999h2.0000001v-1.999998H3v1.999998M8.9999998 3H7v2.0000001h1.9999998V3m1.9999992 18h2.000002v-2.000002h-2.000002V21m7.999999-7.999999H21v-2.000002h-2.000002v2.000002m0 7.999999C20.105 21 21 20.105 21 18.999998h-2.000002V21m0-12.0000002H21V7h-2.000002v1.9999998m0 7.9999992H21v-1.999998h-2.000002v1.999998M15.000002 21h1.999997v-2.000002h-1.999998V21m0-15.9999999h1.999998V3h-1.999998v2.0000001M7 16.999999h9.999999V7H7v9.999999m1.9999998-7.9999992h6.0000022v6.0000022H8.9999998V8.9999998"/>
</svg>

<?xml version="1.0" encoding="UTF-8" standalone="no"?>
<svg
   xmlns:dc="http://purl.org/dc/elements/1.1/"
   xmlns:cc="http://creativecommons.org/ns#"
   xmlns:rdf="http://www.w3.org/1999/02/22-rdf-syntax-ns#"
   xmlns:svg="http://www.w3.org/2000/svg"
   xmlns="http://www.w3.org/2000/svg"
   xmlns:sodipodi="http://sodipodi.sourceforge.net/DTD/sodipodi-0.dtd"
   xmlns:inkscape="http://www.inkscape.org/namespaces/inkscape"
   viewBox="0 0 24 24"
   version="1.1"
   id="svg4"
   sodipodi:docname="edit-select-all.svg"
   inkscape:version="0.92.3 (2405546, 2018-03-11)"
   width="24"
   height="24"
   style="fill:#000000">
  <metadata
     id="metadata10">
    <rdf:RDF>
      <cc:Work
         rdf:about="">
        <dc:format>image/svg+xml</dc:format>
        <dc:type
           rdf:resource="http://purl.org/dc/dcmitype/StillImage" />
        <dc:title></dc:title>
      </cc:Work>
    </rdf:RDF>
  </metadata>
  <defs
     id="defs8" />
  <sodipodi:namedview
     pagecolor="#ffffff"
     bordercolor="#666666"
     borderopacity="1"
     objecttolerance="10"
     gridtolerance="10"
     guidetolerance="10"
     inkscape:pageopacity="0"
     inkscape:pageshadow="2"
     inkscape:window-width="1366"
     inkscape:window-height="719"
     id="namedview6"
     showgrid="false"
     inkscape:zoom="22.5"
     inkscape:cx="11.4"
     inkscape:cy="11.822222"
     inkscape:window-x="0"
     inkscape:window-y="25"
     inkscape:window-maximized="1"
     inkscape:current-layer="svg4"
     showguides="true"
     inkscape:guide-bbox="true" />
  <path
     inkscape:connector-curvature="0"
     d="M 3,5.0000001 H 5.0000001 V 3 C 3.895,3 3,3.895 3,5.0000001 M 3,13.000001 H 5.0000001 V 10.999999 H 3 v 2.000002 M 7,21 H 8.9999998 V 18.999998 H 7 V 21 M 3,8.9999998 H 5.0000001 V 7 H 3 V 8.9999998 M 13.000001,3 h -2.000002 v 2.0000001 h 2.000002 V 3 m 5.999997,0 V 5.0000001 H 21 C 21,3.895 20.105,3 18.999998,3 M 5.0000001,21 V 18.999998 H 3 C 3,20.105 3.895,21 5.0000001,21 M 3,16.999999 H 5.0000001 V 15.000001 H 3 v 1.999998 M 8.9999998,3 H 7 V 5.0000001 H 8.9999998 V 3 m 1.9999992,18 h 2.000002 V 18.999998 H 10.999999 V 21 m 7.999999,-7.999999 H 21 v -2.000002 h -2.000002 v 2.000002 m 0,7.999999 C 20.105,21 21,20.105 21,18.999998 H 18.999998 V 21 m 0,-12.0000002 H 21 V 7 h -2.000002 v 1.9999998 m 0,7.9999992 H 21 v -1.999998 h -2.000002 v 1.999998 M 15.000002,21 h 1.999997 V 18.999998 H 15.000001 V 21 m 0,-15.9999999 h 1.999998 V 3 H 15.000001 V 5.0000001 M 7,16.999999 h 9.999999 V 7 H 7 v 9.999999 M 8.9999998,8.9999998 H 15.000002 V 15.000002 H 8.9999998 V 8.9999998"
     id="path2-3"
     style="fill:#e6e6e6;stroke-width:0.49999997" />
</svg>
